!!!OTL: Das juengere Hildebrandslied.
!!!OTL-incipit: 'Ich wil zu Land aussreiten'
!!!ARE: Europa, Mitteleuropa, Deutschland
!!!YOR: 1, S. 18
!!    1603 gedruckt in Nuernberg
!!!SCT: Q0001A
!!!TXL: @@DE
!!!YEM: Copyright 1995, estate of Helmut Schaffrath.
**kern	**text
*ICvox	*
!! Irregular meter.
*MX	*
*k[]	*
!LO:TX:a:t=Franck, Reuterl. 1603.	!
{2d	'Jch
=1:	=1:
4f	wil
4f	ʒu
4g	Land
4g	auß-
=2:	=2:
2a	-rei-
2a	-ten',
6r}	.
{6a	ſprach
6a	ſich
=3:	=3:
3a	mei-
6a	-ſter
4cc	Hilde-
4a	.
=4:	=4:
4cc	-brand;
8bL	.
8aJ	.
4ee	.
8bL	.
8aJ	.
=5:	=5:
2a	.
4r}	.
{4a	'der
=6:	=6:
4a	mir
4b	den
4cc	Weg
4a	thet
=7:	=7:
2b-	wei-
4a}	-ſen
{4a	gen
=8:	=8:
4g	Be-
4f	-ren
4a	in
4a	die
=9:	=9:
(2g	Land;
2f)	.
4r}	.
{4f	ſie
=10:	=10:
2f	ſind
4g	mir
2a	kunth
4a	ge-
=11:	=11:
2b-	-we-
4a}	-ſen
{4a	ſo
=12:	=12:
4g	manchen
4f	.
4.f	lie-
8e	-ben
=13:	=13:
4d	Tag,
4.g	.
8fL	.
8e	.
8dJ	.
=14:	=14:
4e	.
4c	.
2r}	.
{8aL	in
8g	.
8a	.
8b-iJ	.
=15:	=15:
2cc	ʒwey-
4cc	-und-
2a	-dreyſ-
4f	-ſig
=16:	=16:
8gL	Ja-
8a	.
8b-	.
16a	.
16gJ	.
4a}	-ren
{4a	Fraw
=17:	=17:
4g	V-
4f	-te
8dL	ich
8e	.
8f	.
8gJ	.
=18:	=18:
4.a	.
8g	.
4f	.
8eL	.
8dJ	.
2e	nie
=19:	=19:
2.d}	ſach.'
==:|	==:|
!!!AGN: Ballade, Kampf, Kleinere Melodievarianten aus anderen Quellen abgedruckt.
!!!ONB: ESAC (Essen Associative Code) Database: BALLADE
!!!AMT: irregular
!!!AIN: vox
!!!EED: Helmut Schaffrath
!!!EEV: 1.0
!!!RDF**kern: i = editorial accidental
!!!source: Deutsche Volkslieder mit ihren Melodien. Balladen. Herausgegeben vom Deutschen Volksliedarchiv. Erster Band Balladen. Berlin und Leipzig 1935.
!!!page: 18
!!!ENC: Anna Maria Matuszewska
!!!EEV: 2025/02/13
*-	*-
